resources/icons/close_left_panel.svg

<?xml version="1.0" encoding="UTF-8" standalone="no"?>
<svg
   width="24"
   height="24"
   fill="none"
   version="1.1"
   id="svg1922"
   sodipodi:docname="close_left_panel-converted.svg"
   xmlns:inkscape="http://www.inkscape.org/namespaces/inkscape"
   xmlns:sodipodi="http://sodipodi.sourceforge.net/DTD/sodipodi-0.dtd"
   xmlns="http://www.w3.org/2000/svg"
   xmlns:svg="http://www.w3.org/2000/svg">
  <path
     d="M 3.654,1.059 A 2.605,2.605 0 0 0 2.82,1.331 3.227,3.227 0 0 0 1.304,2.878 C 0.998,3.516 1.02,2.804 1.02,12 c 0,7.75 0.004,8.237 0.071,8.524 0.27,1.148 1.237,2.115 2.385,2.385 0.287,0.067 0.774,0.071 8.524,0.071 7.75,0 8.237,-0.004 8.524,-0.071 1.148,-0.27 2.115,-1.237 2.385,-2.385 C 22.976,20.237 22.98,19.75 22.98,12 22.98,4.25 22.976,3.763 22.909,3.476 22.646,2.357 21.747,1.433 20.606,1.107 L 20.3,1.02 12.12,1.013 C 5.545,1.008 3.884,1.017 3.654,1.059 M 7.68,12 v 9 H 5.842 C 4.083,21 3.993,20.996 3.783,20.918 A 1.405,1.405 0 0 1 3.113,20.315 L 3.02,20.14 3.01,12.086 C 3.003,6.68 3.013,3.981 3.04,3.879 3.131,3.543 3.524,3.139 3.854,3.044 3.923,3.024 4.813,3.006 5.83,3.004 L 7.68,3 v 9 M 20.22,3.083 c 0.298,0.112 0.585,0.399 0.697,0.697 L 21,4.003 V 19.997 L 20.917,20.22 A 1.28,1.28 0 0 1 20.22,20.917 C 19.998,21 19.97,21 14.838,21 H 9.68 V 3 h 5.158 c 5.132,0 5.16,0 5.382,0.083 m -4.105,4.652 a 1.304,1.304 0 0 0 -0.26,0.135 c -0.063,0.046 -0.9,0.873 -1.859,1.837 -1.562,1.569 -1.752,1.774 -1.81,1.95 a 0.982,0.982 0 0 0 0,0.686 c 0.059,0.177 0.247,0.379 1.87,2.003 0.993,0.993 1.867,1.837 1.943,1.875 0.232,0.116 0.589,0.124 0.835,0.018 0.505,-0.217 0.745,-0.847 0.505,-1.327 -0.036,-0.073 -0.689,-0.757 -1.452,-1.522 L 14.5,12 15.886,10.61 C 16.649,9.845 17.302,9.161 17.338,9.088 17.573,8.619 17.349,8.002 16.863,7.775 a 1.031,1.031 0 0 0 -0.748,-0.04"
/>
</svg>

<svg width="24" height="24" viewBox="0 0 24 24" fill="none" xmlns="http://www.w3.org/2000/svg"><path d="M3.654 1.059 C 3.292 1.125,3.120 1.181,2.820 1.331 C 2.137 1.672,1.637 2.181,1.304 2.878 C 0.998 3.516,1.020 2.804,1.020 12.000 C 1.020 19.750,1.024 20.237,1.091 20.524 C 1.361 21.672,2.328 22.639,3.476 22.909 C 3.763 22.976,4.250 22.980,12.000 22.980 C 19.750 22.980,20.237 22.976,20.524 22.909 C 21.672 22.639,22.639 21.672,22.909 20.524 C 22.976 20.237,22.980 19.750,22.980 12.000 C 22.980 4.250,22.976 3.763,22.909 3.476 C 22.646 2.357,21.747 1.433,20.606 1.107 L 20.300 1.020 12.120 1.013 C 5.545 1.008,3.884 1.017,3.654 1.059 M7.680 12.000 L 7.680 21.000 5.842 21.000 C 4.083 21.000,3.993 20.996,3.783 20.918 C 3.528 20.822,3.251 20.572,3.113 20.315 L 3.020 20.140 3.010 12.086 C 3.003 6.680,3.013 3.981,3.040 3.879 C 3.131 3.543,3.524 3.139,3.854 3.044 C 3.923 3.024,4.813 3.006,5.830 3.004 L 7.680 3.000 7.680 12.000 M20.220 3.083 C 20.518 3.195,20.805 3.482,20.917 3.780 L 21.000 4.003 21.000 12.000 L 21.000 19.997 20.917 20.220 C 20.805 20.518,20.518 20.805,20.220 20.917 C 19.998 21.000,19.970 21.000,14.838 21.000 L 9.680 21.000 9.680 12.000 L 9.680 3.000 14.838 3.000 C 19.970 3.000,19.998 3.000,20.220 3.083 M16.115 7.735 C 16.036 7.764,15.919 7.825,15.855 7.871 C 15.631 8.034,12.287 11.422,12.215 11.560 C 12.163 11.659,12.141 11.788,12.141 12.000 C 12.140 12.255,12.156 12.327,12.247 12.480 C 12.383 12.707,15.812 16.127,15.998 16.221 C 16.074 16.259,16.249 16.300,16.387 16.311 C 16.602 16.328,16.668 16.316,16.858 16.223 C 17.358 15.978,17.575 15.387,17.338 14.912 C 17.302 14.839,16.649 14.155,15.886 13.390 L 14.500 12.000 15.886 10.610 C 16.649 9.845,17.302 9.161,17.338 9.088 C 17.573 8.619,17.349 8.002,16.863 7.775 C 16.634 7.669,16.345 7.653,16.115 7.735 " stroke="none" fill-rule="evenodd" fill="black"></path></svg>
